X: 5820
T: Calico Hills
R: jig
M: 6/8
K: Adorian
|:aed c2A|B2G ABc|dBA G2B|d^cd egf|
aed c2A|B2G ABc|dBA G2E|AGA A3:|
|:AGA ABc|e2c ABc|dgg Bdd|A2d G2B|
AGA ABc|e2c ABc|dBA G2E|AGA A3:|

